lib/assets/images/il_start.svg

<svg width="100" height="100" viewBox="0 0 100 100" fill="none" xmlns="http://www.w3.org/2000/svg">
<g clip-path="url(#clip0_254_4176)">
<path d="M28.0488 46.3781L51.2684 69.5976L48.2919 72.574C46.7298 74.1361 44.1971 74.1361 42.635 72.574L25.0724 55.0114C23.5103 53.4493 23.5103 50.9166 25.0724 49.3545L28.0488 46.3781Z" fill="#3179E7"/>
<mask id="mask0_254_4176" style="mask-type:alpha" maskUnits="userSpaceOnUse" x="19" y="14" width="65" height="65">
<path d="M83.4148 20.1593C83.8228 16.9203 81.0679 14.1654 77.829 14.5735L70.1745 15.5379C66.87 15.9542 63.798 17.4585 61.4429 19.8136L54.8364 26.4201C53.5294 27.7272 51.8319 28.5725 50.0012 28.8281L24.2742 32.4196C19.3687 33.1044 17.3587 39.1023 20.8611 42.6046L55.3836 77.1271C58.886 80.6295 64.8838 78.6196 65.5686 73.7141L69.1602 47.9871C69.4157 46.1564 70.2611 44.4589 71.5681 43.1519L78.1746 36.5453C80.5298 34.1902 82.0341 31.1183 82.4504 27.8138L83.4148 20.1593Z" fill="#C4C4C4"/>
</mask>
<g mask="url(#mask0_254_4176)">
<path d="M92.0736 21.622L75.3419 4.89025L12.3419 34.0854L63.9029 85.6464L92.0736 21.622Z" fill="url(#paint0_linear_254_4176)"/>
<rect x="74.4883" y="6.76819" width="23.6622" height="63.2602" transform="rotate(45 74.4883 6.76819)" fill="url(#paint1_linear_254_4176)"/>
</g>
<mask id="mask1_254_4176" style="mask-type:alpha" maskUnits="userSpaceOnUse" x="17" y="63" width="18" height="17">
<path d="M32.1393 75.0687C30.5734 76.6346 25.4762 78.379 21.5792 79.5413C19.4137 80.1872 17.4598 78.2334 18.1057 76.0678C19.2681 72.1708 21.0124 67.0737 22.5783 65.5078C25.2226 62.8635 29.5065 62.8601 32.1467 65.5003C34.7869 68.1405 34.7836 72.4245 32.1393 75.0687Z" fill="#C4C4C4"/>
</mask>
<g mask="url(#mask1_254_4176)">
<path d="M32.1393 75.0687C30.5734 76.6346 25.4762 78.379 21.5792 79.5413C19.4137 80.1872 17.4598 78.2334 18.1057 76.0678C19.2681 72.1708 21.0124 67.0737 22.5783 65.5078C25.2226 62.8635 29.5065 62.8601 32.1467 65.5003C34.7869 68.1405 34.7836 72.4245 32.1393 75.0687Z" fill="#FFD46F" fill-opacity="0.5"/>
<g filter="url(#filter0_f_254_4176)">
<circle cx="29.4277" cy="68.2886" r="7.16359" transform="rotate(45 29.4277 68.2886)" fill="url(#paint2_linear_254_4176)"/>
</g>
</g>
<g filter="url(#filter1_b_254_4176)">
<circle cx="63.9023" cy="36.4758" r="4.82903" transform="rotate(45 63.9023 36.4758)" fill="#FFD46F"/>
</g>
<g filter="url(#filter2_b_254_4176)">
<circle cx="64.585" cy="33.4028" r="7.96789" transform="rotate(45 64.585 33.4028)" fill="white" fill-opacity="0.5"/>
</g>
</g>
<defs>
<filter id="filter0_f_254_4176" x="17.7642" y="56.625" width="23.3271" height="23.3271" filterUnits="userSpaceOnUse" color-interpolation-filters="sRGB">
<feFlood flood-opacity="0" result="BackgroundImageFix"/>
<feBlend mode="normal" in="SourceGraphic" in2="BackgroundImageFix" result="shape"/>
<feGaussianBlur stdDeviation="2.25" result="effect1_foregroundBlur_254_4176"/>
</filter>
<filter id="filter1_b_254_4176" x="51.0734" y="23.6467" width="25.658" height="25.6581" filterUnits="userSpaceOnUse" color-interpolation-filters="sRGB">
<feFlood flood-opacity="0" result="BackgroundImageFix"/>
<feGaussianBlur in="BackgroundImage" stdDeviation="4"/>
<feComposite in2="SourceAlpha" operator="in" result="effect1_backgroundBlur_254_4176"/>
<feBlend mode="normal" in="SourceGraphic" in2="effect1_backgroundBlur_254_4176" result="shape"/>
</filter>
<filter id="filter2_b_254_4176" x="51.1171" y="19.9349" width="26.9358" height="26.9358" filterUnits="userSpaceOnUse" color-interpolation-filters="sRGB">
<feFlood flood-opacity="0" result="BackgroundImageFix"/>
<feGaussianBlur in="BackgroundImage" stdDeviation="2.75"/>
<feComposite in2="SourceAlpha" operator="in" result="effect1_backgroundBlur_254_4176"/>
<feBlend mode="normal" in="SourceGraphic" in2="effect1_backgroundBlur_254_4176" result="shape"/>
</filter>
<linearGradient id="paint0_linear_254_4176" x1="30.104" y1="47.1258" x2="84.3645" y2="28.6235" gradientUnits="userSpaceOnUse">
<stop stop-color="#26BEFF"/>
<stop offset="1" stop-color="#3A83F1"/>
</linearGradient>
<linearGradient id="paint1_linear_254_4176" x1="91.44" y1="19.5816" x2="68.2274" y2="61.2278" gradientUnits="userSpaceOnUse">
<stop stop-color="#3A83F1"/>
<stop offset="0.875954" stop-color="#3A83F1" stop-opacity="0"/>
</linearGradient>
<linearGradient id="paint2_linear_254_4176" x1="28.9836" y1="77.8523" x2="29.2921" y2="59.0332" gradientUnits="userSpaceOnUse">
<stop stop-color="#FFD46F"/>
<stop offset="0.996536" stop-color="#FFBC57"/>
</linearGradient>
<clipPath id="clip0_254_4176">
<rect width="100" height="100" fill="white"/>
</clipPath>
</defs>
</svg>

<svg width="100" height="100" fill="none" xmlns="http://www.w3.org/2000/svg"><g clip-path="url(#clip0_254_4176)"><path d="M28.049 46.378l23.22 23.22-2.977 2.976a4 4 0 0 1-5.657 0L25.072 55.011a4 4 0 0 1 0-5.657l2.977-2.976z" fill="#3179E7"/><mask id="a" style="mask-type:alpha" maskUnits="userSpaceOnUse" x="19" y="14" width="65" height="65"><path d="M83.415 20.16c.408-3.24-2.347-5.995-5.586-5.587l-7.654.965a15 15 0 0 0-8.732 4.276l-6.607 6.606a8.5 8.5 0 0 1-4.835 2.408L24.274 32.42c-4.905.684-6.915 6.682-3.413 10.185l34.523 34.522c3.502 3.502 9.5 1.493 10.185-3.413l3.591-25.727a8.5 8.5 0 0 1 2.408-4.835l6.607-6.607a15 15 0 0 0 4.275-8.731l.965-7.655z" fill="#C4C4C4"/></mask><g mask="url(#a)"><path d="M92.074 21.622L75.342 4.89l-63 29.195 51.56 51.561 28.172-64.024z" fill="url(#paint0_linear_254_4176)"/><path transform="rotate(45 74.488 6.768)" fill="url(#paint1_linear_254_4176)" d="M74.488 6.768H98.15v63.26H74.488z"/></g><mask id="b" style="mask-type:alpha" maskUnits="userSpaceOnUse" x="17" y="63" width="18" height="17"><path d="M32.14 75.069c-1.567 1.566-6.664 3.31-10.56 4.472a2.769 2.769 0 0 1-3.474-3.473c1.162-3.897 2.906-8.994 4.472-10.56 2.645-2.644 6.928-2.648 9.569-.008 2.64 2.64 2.637 6.924-.008 9.569z" fill="#C4C4C4"/></mask><g mask="url(#b)"><path d="M32.14 75.069c-1.567 1.566-6.664 3.31-10.56 4.472a2.769 2.769 0 0 1-3.474-3.473c1.162-3.897 2.906-8.994 4.472-10.56 2.645-2.644 6.928-2.648 9.569-.008 2.64 2.64 2.637 6.924-.008 9.569z" fill="#FFD46F" fill-opacity=".5"/><g filter="url(#filter0_f_254_4176)"><circle cx="29.428" cy="68.289" r="7.164" transform="rotate(45 29.428 68.289)" fill="url(#paint2_linear_254_4176)"/></g></g><g filter="url(#filter1_b_254_4176)"><circle cx="63.902" cy="36.476" r="4.829" transform="rotate(45 63.902 36.476)" fill="#FFD46F"/></g><g filter="url(#filter2_b_254_4176)"><circle cx="64.585" cy="33.403" r="7.968" transform="rotate(45 64.585 33.403)" fill="#fff" fill-opacity=".5"/></g></g><defs><filter id="filter0_f_254_4176" x="17.764" y="56.625" width="23.327" height="23.327" filterUnits="userSpaceOnUse" color-interpolation-filters="sRGB"><feFlood flood-opacity="0" result="BackgroundImageFix"/><feBlend in="SourceGraphic" in2="BackgroundImageFix" result="shape"/><feGaussianBlur stdDeviation="2.25" result="effect1_foregroundBlur_254_4176"/></filter><filter id="filter1_b_254_4176" x="51.073" y="23.647" width="25.658" height="25.658" filterUnits="userSpaceOnUse" color-interpolation-filters="sRGB"><feFlood flood-opacity="0" result="BackgroundImageFix"/><feGaussianBlur in="BackgroundImage" stdDeviation="4"/><feComposite in2="SourceAlpha" operator="in" result="effect1_backgroundBlur_254_4176"/><feBlend in="SourceGraphic" in2="effect1_backgroundBlur_254_4176" result="shape"/></filter><filter id="filter2_b_254_4176" x="51.117" y="19.935" width="26.936" height="26.936" filterUnits="userSpaceOnUse" color-interpolation-filters="sRGB"><feFlood flood-opacity="0" result="BackgroundImageFix"/><feGaussianBlur in="BackgroundImage" stdDeviation="2.75"/><feComposite in2="SourceAlpha" operator="in" result="effect1_backgroundBlur_254_4176"/><feBlend in="SourceGraphic" in2="effect1_backgroundBlur_254_4176" result="shape"/></filter><linearGradient id="paint0_linear_254_4176" x1="30.104" y1="47.126" x2="84.365" y2="28.623" gradientUnits="userSpaceOnUse"><stop stop-color="#26BEFF"/><stop offset="1" stop-color="#3A83F1"/></linearGradient><linearGradient id="paint1_linear_254_4176" x1="91.44" y1="19.582" x2="68.227" y2="61.228" gradientUnits="userSpaceOnUse"><stop stop-color="#3A83F1"/><stop offset=".876" stop-color="#3A83F1" stop-opacity="0"/></linearGradient><linearGradient id="paint2_linear_254_4176" x1="28.984" y1="77.852" x2="29.292" y2="59.033" gradientUnits="userSpaceOnUse"><stop stop-color="#FFD46F"/><stop offset=".997" stop-color="#FFBC57"/></linearGradient><clipPath id="clip0_254_4176"><path fill="#fff" d="M0 0h100v100H0z"/></clipPath></defs></svg>
